X: 25332
T: Mantell Siani
R: polka
M: 2/4
K: Gmajor
d/c/|:"G"dB Bd|"D"c/A/A Ac|"Em"BG/G/ GB|"D"A/G/F/E/ DG/F/|
"C"E>D EF|"D"G>F GA|"G"BG "D"AF|1 "G" G3 d/c/:|2 "G"G2||
"G"BB/c/ dB|"C"ee/f/ ge|a"A"a/g/ fe|"D"fd dd/c/|
"G"BB/c/ dB|"C"ee/f/ ge|"D"f/d/A/d/ "A" e/^c/A/^c/|"D"d3d|
"G"dB Bd|"D"c/A/A Ac|"Em"BG/G/ GB|"D"A/G/F/E/ DG/F/|
"C"E>D EF|"D"G>F GA|"G"B/G/D/G/ "D"A/F/D/F/|"G"G2||

